src/images/TS.svg

<svg width="97" height="97" viewBox="0 0 97 97" fill="none" xmlns="http://www.w3.org/2000/svg">
<g clip-path="url(#clip0_24_976)">
<path fill-rule="evenodd" clip-rule="evenodd" d="M5.04258 1.86212H92.4264C94.3829 1.86212 95.969 3.42923 95.969 5.36236V91.7015C95.969 93.6347 94.3829 95.2017 92.4264 95.2017H5.04258C3.08607 95.2017 1.5 93.6347 1.5 91.7015V5.36236C1.5 3.42923 3.08607 1.86212 5.04258 1.86212ZM54.0147 51.5202V43.8649H20.3938V51.5202H32.397V85.6057H41.9526V51.5202H54.0147ZM57.8243 84.7057C59.3652 85.4819 61.1877 86.0641 63.2915 86.4522C65.3957 86.8403 67.613 87.0345 69.9443 87.0345C72.2162 87.0345 74.3743 86.8209 76.4192 86.3941C78.4638 85.9672 80.2564 85.2636 81.7973 84.2835C83.3382 83.3035 84.5582 82.0229 85.4571 80.4412C86.356 78.8594 86.8054 76.9043 86.8054 74.5755C86.8054 72.8871 86.5485 71.4077 86.0348 70.1365C85.5214 68.8652 84.7806 67.7348 83.8124 66.745C82.8446 65.7552 81.6838 64.8674 80.3305 64.0816C78.9771 63.2957 77.4514 62.5533 75.7524 61.8547C74.5076 61.35 73.3914 60.8599 72.4038 60.3846C71.4158 59.9093 70.5762 59.4239 69.885 58.9292C69.1934 58.4342 68.6603 57.9104 68.2849 57.3572C67.9094 56.8043 67.7219 56.1782 67.7219 55.4796C67.7219 54.8392 67.8897 54.2619 68.2256 53.7478C68.5615 53.2334 69.0353 52.7918 69.6479 52.4231C70.2604 52.0544 71.0109 51.7683 71.9001 51.5644C72.7889 51.3608 73.7769 51.2589 74.8633 51.2589C75.6536 51.2589 76.4882 51.317 77.3673 51.4334C78.2464 51.55 79.1305 51.7295 80.0193 51.9719C80.9085 52.2145 81.7729 52.5201 82.6125 52.8891C83.4521 53.2578 84.2273 53.6846 84.9387 54.1696V45.4661C83.4963 44.9226 81.9209 44.5198 80.2119 44.2581C78.5033 43.996 76.5424 43.8649 74.3298 43.8649C72.0779 43.8649 69.9443 44.1026 67.9292 44.5783C65.9141 45.0536 64.1412 45.796 62.61 46.8051C61.0788 47.8143 59.8689 49.0999 58.98 50.6619C58.0909 52.2242 57.6465 54.0921 57.6465 56.2655C57.6465 59.0409 58.4613 61.4085 60.0912 63.3683C61.7212 65.3284 64.1954 66.9877 67.5142 68.3461C68.8184 68.8703 70.033 69.3844 71.1593 69.8891C72.2852 70.3935 73.2581 70.9176 74.0779 71.4608C74.8977 72.0043 75.5448 72.596 76.019 73.2364C76.4932 73.8769 76.7303 74.6046 76.7303 75.4198C76.7303 76.0215 76.582 76.5794 76.2856 77.0935C75.9892 77.6079 75.5397 78.0542 74.9373 78.4326C74.3348 78.8109 73.5843 79.1071 72.6854 79.3204C71.7866 79.534 70.7343 79.6406 69.5293 79.6406C67.4747 79.6406 65.4399 79.2866 63.4248 78.5783C61.4101 77.87 59.543 76.8074 57.8243 75.3908V84.7057Z" fill="url(#paint0_linear_24_976)"/>
</g>
<defs>
<linearGradient id="paint0_linear_24_976" x1="-1.61257" y1="95.2017" x2="102.85" y2="-9.476" gradientUnits="userSpaceOnUse">
<stop offset="0.00833321" stop-color="#5C03BC"/>
<stop offset="0.53125" stop-color="#E536AB"/>
<stop offset="0.898958" stop-color="#F4E5F0"/>
</linearGradient>
<clipPath id="clip0_24_976">
<rect width="94" height="93" fill="white" transform="translate(1.5 2)"/>
</clipPath>
</defs>
</svg>

<svg xmlns="http://www.w3.org/2000/svg" width="97" height="97" fill="none"><g clip-path="url(#a)"><path fill="url(#b)" fill-rule="evenodd" d="M5.043 1.862h87.383c1.957 0 3.543 1.567 3.543 3.5v86.34c0 1.933-1.586 3.5-3.543 3.5H5.043c-1.957 0-3.543-1.567-3.543-3.5V5.361c0-1.933 1.586-3.5 3.543-3.5ZM54.015 51.52v-7.655H20.394v7.655h12.003v34.086h9.556V51.52h12.062Zm3.81 33.186c1.54.776 3.363 1.358 5.466 1.746 2.105.388 4.322.582 6.653.582 2.272 0 4.43-.213 6.475-.64 2.045-.427 3.837-1.13 5.378-2.11s2.761-2.261 3.66-3.843c.899-1.582 1.348-3.537 1.348-5.865 0-1.689-.257-3.168-.77-4.44a10.35 10.35 0 0 0-2.223-3.391c-.967-.99-2.128-1.878-3.481-2.663-1.354-.786-2.88-1.529-4.579-2.227a58.163 58.163 0 0 1-3.348-1.47c-.988-.476-1.828-.961-2.519-1.456-.692-.495-1.225-1.019-1.6-1.572a3.265 3.265 0 0 1-.563-1.877c0-.64.168-1.218.504-1.732.335-.515.81-.956 1.422-1.325.612-.369 1.363-.655 2.252-.859.889-.203 1.877-.305 2.963-.305.79 0 1.625.058 2.504.174.88.117 1.763.297 2.652.539.89.242 1.754.548 2.593.917.84.369 1.615.796 2.327 1.28v-8.703c-1.443-.543-3.018-.946-4.727-1.208-1.709-.262-3.67-.393-5.882-.393-2.252 0-4.386.238-6.4.713-2.016.476-3.789 1.218-5.32 2.227a11.203 11.203 0 0 0-3.63 3.857c-.89 1.562-1.333 3.43-1.333 5.604 0 2.775.814 5.142 2.444 7.102s4.104 3.62 7.423 4.978c1.304.524 2.519 1.038 3.645 1.543 1.126.505 2.1 1.029 2.919 1.572.82.543 1.467 1.135 1.941 1.775.474.64.711 1.369.711 2.184 0 .602-.148 1.16-.444 1.674-.297.514-.746.96-1.349 1.339-.602.378-1.353.674-2.252.887-.898.214-1.95.32-3.156.32-2.054 0-4.09-.353-6.104-1.062-2.015-.708-3.882-1.77-5.6-3.187v9.315Z" clip-rule="evenodd"/></g><defs><linearGradient id="b" x1="-1.613" x2="102.85" y1="95.202" y2="-9.476" gradientUnits="userSpaceOnUse"><stop offset=".008" stop-color="#5C03BC"/><stop offset=".531" stop-color="#E536AB"/><stop offset=".899" stop-color="#F4E5F0"/></linearGradient><clipPath id="a"><path fill="#fff" d="M1.5 2h94v93h-94z"/></clipPath></defs></svg>
